public/static/img/user/back.svg

<svg width="24" height="25" viewBox="0 0 24 25" fill="none" xmlns="http://www.w3.org/2000/svg">
<g id="Frame">
<path id="Vector" d="M14.7417 18.4291L9.13797 12.9189L14.7417 7.40866C15.0861 7.07003 15.0861 6.5201 14.7417 6.18146C14.3973 5.84283 13.8381 5.84283 13.4937 6.18146L7.35822 12.2145C7.32516 12.2389 7.2921 12.2687 7.25904 12.2985C7.08547 12.4692 7.00006 12.694 7.00006 12.9189C6.99731 13.1437 7.08547 13.3686 7.25904 13.5393C7.28934 13.5691 7.3224 13.5989 7.35822 13.6232L13.4937 19.6563C13.8381 19.9949 14.3973 19.9949 14.7417 19.6563C15.0861 19.3177 15.0861 18.7677 14.7417 18.4291Z" fill="white"/>
</g>
</svg>

<svg width="24" height="25" fill="none" xmlns="http://www.w3.org/2000/svg"><path d="m14.742 18.43-5.604-5.511 5.604-5.51a.858.858 0 0 0 0-1.228.894.894 0 0 0-1.248 0l-6.136 6.033a.866.866 0 0 0-.358.704.855.855 0 0 0 .358.705l6.136 6.033a.894.894 0 0 0 1.248 0 .858.858 0 0 0 0-1.227Z" fill="#fff"/></svg>
